img/bank/img-13.svg

<svg width="36" height="34" viewBox="0 0 36 34" fill="none" xmlns="http://www.w3.org/2000/svg">
<rect width="36" height="34" rx="11" fill="#47C84D"/>
<path d="M23.9474 15.6266C23.4263 15.2447 22.7475 15.0685 21.9107 15.0979C22.7821 14.3356 22.9991 13.3803 22.5612 12.2313C22.4061 11.8139 22.1834 11.4756 21.8938 11.2159C21.6039 10.9562 21.2587 10.7776 20.8566 10.6799C20.4549 10.5822 20.035 10.5383 19.5975 10.5477C19.1597 10.5572 18.6687 10.6105 18.1243 10.7078L17.467 8.25455L15.9112 8.67141L16.5503 11.0565C16.281 11.1286 15.8718 11.2452 15.3229 11.4062L14.6786 9.00169L13.1221 9.41874L13.7795 11.872C13.559 11.938 13.2332 12.029 12.8022 12.1445L10.6574 12.7086L11.0851 14.305L12.2066 14.0045C12.7187 13.8673 13.0776 14.0076 13.2832 14.4254L14.0318 17.2193C14.0994 17.2011 14.1541 17.1901 14.1962 17.1858L14.0345 17.2291L15.0831 21.1424C15.1179 21.4876 14.9669 21.7057 14.63 21.7959L13.5085 22.0964L13.6728 23.9623L15.6935 23.4208C15.8217 23.3865 16.0072 23.3386 16.2504 23.2764C16.4937 23.2148 16.676 23.1674 16.797 23.135L17.4621 25.6173L19.0186 25.2002L18.3612 22.7469C18.6458 22.678 19.0575 22.571 19.5965 22.4265L20.2512 24.8699L21.8073 24.453L21.1422 21.9707C21.6877 21.7968 22.1649 21.617 22.5732 21.4309C22.9819 21.2446 23.361 21.0232 23.7108 20.7657C24.0607 20.5086 24.3364 20.2312 24.5382 19.9337C24.7403 19.6362 24.8798 19.2892 24.9579 18.8926C25.0356 18.4961 25.0363 18.0611 24.9599 17.5878C24.8064 16.6623 24.4684 16.0085 23.9474 15.6266ZM15.8224 13.15C15.8694 13.1374 16.002 13.1001 16.2203 13.0383C16.4384 12.9762 16.6195 12.9244 16.7633 12.8822C16.9073 12.8403 17.1047 12.7958 17.3559 12.7494C17.6071 12.7029 17.821 12.6733 17.9982 12.6606C18.1753 12.6478 18.3751 12.6517 18.5968 12.6723C18.8189 12.6928 19.005 12.7402 19.1547 12.8148C19.3047 12.8894 19.4439 12.9983 19.5725 13.1411C19.701 13.2839 19.794 13.4625 19.8514 13.6766C19.9001 13.8584 19.914 14.0319 19.8935 14.1978C19.873 14.3633 19.8155 14.5125 19.7211 14.6456C19.627 14.7786 19.5256 14.8997 19.4175 15.0087C19.3097 15.1176 19.1623 15.2215 18.9755 15.3201C18.7892 15.4187 18.6253 15.5009 18.484 15.5666C18.3427 15.6322 18.1624 15.6999 17.9427 15.769C17.723 15.8381 17.5564 15.89 17.4426 15.9238C17.3287 15.9576 17.1723 15.9995 16.9726 16.0498C16.7729 16.1 16.6563 16.1294 16.6227 16.1384L15.8224 13.15ZM21.8477 18.641C21.8236 18.8075 21.776 18.9595 21.7047 19.097C21.633 19.2343 21.5261 19.3674 21.3837 19.4959C21.2414 19.6246 21.0997 19.7353 20.9586 19.829C20.8176 19.9227 20.6428 20.0178 20.4346 20.1156C20.226 20.2132 20.0415 20.2922 19.8807 20.3528C19.7201 20.4134 19.5265 20.4792 19.3001 20.5501C19.0736 20.621 18.8962 20.6736 18.7684 20.7079C18.6403 20.7422 18.4781 20.7838 18.282 20.8331C18.0858 20.8824 17.9608 20.9141 17.9066 20.9286L17.0249 17.6379C17.0787 17.6235 17.2378 17.5775 17.5021 17.4994C17.7665 17.4216 17.983 17.3603 18.1514 17.3152C18.3199 17.27 18.555 17.2173 18.8568 17.1576C19.1583 17.0977 19.4152 17.0599 19.628 17.0445C19.8405 17.0292 20.0771 17.0302 20.3381 17.0472C20.599 17.0643 20.8191 17.1113 20.9987 17.1885C21.1784 17.2657 21.3429 17.3813 21.4924 17.5361C21.6423 17.6907 21.7486 17.8848 21.8112 18.1183C21.8592 18.3006 21.8717 18.4745 21.8477 18.641Z" fill="#F7F7F7"/>
</svg>

<svg width="36" height="34" fill="none" xmlns="http://www.w3.org/2000/svg"><rect width="36" height="34" rx="11" fill="#47C84D"/><path d="M23.947 15.627c-.52-.382-1.2-.559-2.036-.53.871-.761 1.088-1.717.65-2.866a2.507 2.507 0 00-.667-1.015 2.361 2.361 0 00-1.037-.536 4.866 4.866 0 00-1.26-.132 9.76 9.76 0 00-1.473.16l-.657-2.453-1.556.416.64 2.386c-.27.072-.68.188-1.228.35l-.644-2.405-1.557.417.658 2.453c-.221.066-.547.157-.978.273l-2.145.564.428 1.596 1.122-.3c.512-.138.87.003 1.076.42l.749 2.794c.067-.018.122-.029.164-.033l-.162.043 1.05 3.913c.034.346-.117.564-.454.654l-1.122.3.165 1.866 2.02-.541.557-.145c.244-.061.426-.109.547-.141l.665 2.482 1.557-.417-.658-2.453c.285-.069.697-.176 1.235-.32l.655 2.443 1.556-.417-.665-2.482a12.993 12.993 0 001.431-.54 6.364 6.364 0 001.138-.665c.35-.257.625-.535.827-.832.202-.298.342-.645.42-1.041.078-.397.078-.832.002-1.305-.154-.926-.492-1.58-1.013-1.961zm-8.125-2.477a47.615 47.615 0 00.941-.268c.144-.042.342-.086.593-.133.251-.046.465-.076.642-.088.177-.013.377-.01.599.011.222.02.408.068.558.143.15.074.289.183.418.326.128.143.221.322.278.536.05.181.063.355.043.52a.967.967 0 01-.173.449 2.861 2.861 0 01-.303.363 1.806 1.806 0 01-.442.311c-.187.099-.35.18-.492.247a4.565 4.565 0 01-.541.202 12.342 12.342 0 01-.97.28c-.2.051-.317.08-.35.09l-.8-2.989zm6.026 5.491a1.427 1.427 0 01-.143.456 1.45 1.45 0 01-.321.399c-.143.129-.284.24-.425.333a4.131 4.131 0 01-.524.287 7.925 7.925 0 01-1.135.434 14.343 14.343 0 01-1.018.283c-.196.05-.321.081-.375.096l-.882-3.291a27.2 27.2 0 00.477-.139c.265-.077.481-.139.65-.184.168-.045.403-.098.705-.157.301-.06.558-.098.771-.114.212-.015.45-.014.71.003.261.017.481.064.66.142.18.077.345.192.494.347.15.155.257.349.32.582.047.183.06.357.036.523z" fill="#F7F7F7"/></svg>
